src/img/logo-b.svg

<svg width="63" height="55" viewBox="0 0 63 55" fill="none" xmlns="http://www.w3.org/2000/svg">
<mask id="mask0" style="mask-type:alpha" maskUnits="userSpaceOnUse" x="38" y="4" width="8" height="11">
<path d="M38.5873 13.8451L45.4767 4.33838L41.0273 14.1791L38.5873 13.8451Z" fill="white"/>
</mask>
<g mask="url(#mask0)">
<path fill-rule="evenodd" clip-rule="evenodd" d="M38.5873 13.8451L45.4767 4.33838L41.0273 14.1791L38.5873 13.8451Z" fill="url(#paint0_linear)"/>
</g>
<mask id="mask1" style="mask-type:alpha" maskUnits="userSpaceOnUse" x="10" y="0" width="44" height="42">
<path d="M45.3176 41.2295L42.6401 26.3501L53.5298 15.8901L41.0273 14.1788C34.493 28.5475 32.4374 34.2979 45.3176 41.2295ZM32.0298 0.229492L25.4723 13.8449L10.5298 15.8901L21.4195 26.3501L18.742 41.2295L38.5873 13.8449L41.0273 14.1788L38.5873 13.8449L32.0298 0.229492Z" fill="white"/>
</mask>
<g mask="url(#mask1)">
<path fill-rule="evenodd" clip-rule="evenodd" d="M43.6996 41.2295L41.1466 26.3501L51.5298 15.8901L39.6088 14.1788C33.3784 28.5475 31.4185 34.2979 43.6996 41.2295ZM31.0298 0.229492L24.7773 13.8449L10.5298 15.8901L20.913 26.3501L18.36 41.2295L37.2823 13.8449L39.6088 14.1788L37.2823 13.8449L31.0298 0.229492Z" fill="url(#paint1_linear)"/>
</g>
<mask id="mask2" style="mask-type:alpha" maskUnits="userSpaceOnUse" x="16" y="53" width="5" height="2">
<path d="M16.2949 54.7067L18.3396 53.4192L20.3844 54.7067C19.0212 54.4353 17.658 54.4353 16.2949 54.7067Z" fill="white"/>
</mask>
<g mask="url(#mask2)">
<path fill-rule="evenodd" clip-rule="evenodd" d="M16.2949 54.7067L18.3396 53.4192L20.3844 54.7067C19.0212 54.4353 17.658 54.4353 16.2949 54.7067Z" fill="white"/>
</g>
<path fill-rule="evenodd" clip-rule="evenodd" d="M31.9968 54.7066H36.6922C37.7525 54.7066 38.4846 54.1076 38.4846 53.2401V52.0215C38.4846 51.5154 38.1816 51.1437 37.5884 50.9061C38.1185 50.6479 38.3836 50.2761 38.3836 49.7907V48.7373C38.3836 47.8698 37.6515 47.2708 36.5913 47.2708H31.9968V54.7066ZM33.8144 48.6547H36.1368C36.4271 48.6547 36.566 48.7683 36.566 49.0059V49.894C36.566 50.1832 36.4776 50.2451 36.1368 50.2451H33.8144V48.6547ZM33.8144 51.5671H36.0864C36.5029 51.5671 36.667 51.6084 36.667 51.8975V52.9716C36.667 53.2092 36.5282 53.3228 36.2378 53.3228H33.8144V51.5671ZM44.8461 53.0336L45.4393 54.7066H47.3958L44.4675 47.2708H42.3469L39.4186 54.7066H41.2993L41.9052 53.0336H44.8461ZM44.3539 51.6291H42.41L43.3946 48.9026L44.3539 51.6291ZM54.5778 49.5635V48.696C54.5778 47.8285 53.8457 47.2295 52.7855 47.2295H50.1096C49.0493 47.2295 48.3172 47.8285 48.3172 48.696V49.956C48.3172 50.7409 49.0745 51.2469 50.1348 51.4431L52.4825 51.8563C52.7855 51.9079 52.9117 51.9905 52.9117 52.2074V52.9923C52.9117 53.2298 52.7729 53.3434 52.4825 53.3434H50.5135C50.2232 53.3434 50.0843 53.2298 50.0843 52.9923V52.3313H48.3172V53.2815C48.3172 54.149 49.0493 54.7479 50.1096 54.7479H52.9369C53.9972 54.7479 54.7293 54.149 54.7293 53.2815V51.9388C54.7293 51.154 53.972 50.6479 52.9117 50.4517L50.564 50.0386C50.261 49.987 50.1348 49.9044 50.1348 49.6875V48.9852C50.1348 48.7476 50.2737 48.634 50.564 48.634H52.3816C52.6719 48.634 52.8107 48.7476 52.8107 48.9852V49.5635H54.5778ZM56.5847 54.7066H62.5298V53.3021H58.4023V51.6084H61.7472V50.2038H58.4023H56.5847V54.7066ZM58.4023 48.6753H62.5298V47.2708H56.5847V48.6753H58.4023Z" fill="white"/>
<path fill-rule="evenodd" clip-rule="evenodd" d="M28.8539 51.8875C29.6112 51.7119 30.0909 51.1852 30.0909 50.4829V48.7376C30.0909 47.87 29.3588 47.2711 28.2985 47.2711H23.6662V54.7069H25.4838V51.9494H26.948L28.4121 54.7069H30.3686L28.8539 51.8875ZM6.79037 49.5638V48.6962C6.79037 47.8287 6.05829 47.2297 4.99799 47.2297H2.32213C1.26186 47.2297 0.529785 47.8287 0.529785 48.6962V49.9562C0.529785 50.7411 1.28709 51.2471 2.34736 51.4434L4.69507 51.8565C4.99799 51.9081 5.12423 51.9908 5.12423 52.2076V52.9925C5.12423 53.2301 4.98539 53.3436 4.69507 53.3436H2.72602C2.43569 53.3436 2.29686 53.2301 2.29686 52.9925V52.3316H0.529785V53.2817C0.529785 54.1492 1.26186 54.7482 2.32213 54.7482H5.14947C6.20973 54.7482 6.94181 54.1492 6.94181 53.2817V51.9391C6.94181 51.1542 6.1845 50.6482 5.12423 50.4519L2.77649 50.0388C2.47357 49.9872 2.34736 49.9046 2.34736 49.6877V48.9854C2.34736 48.7479 2.4862 48.6343 2.77649 48.6343H4.5941C4.88442 48.6343 5.02326 48.7479 5.02326 48.9854V49.5638H6.79037ZM14.553 47.2711H7.98944V48.655H10.3624V54.7069H12.18V48.655H14.553V47.2711ZM20.3844 54.7069H22.3409L19.4125 47.2711H17.292L14.3636 54.7069H16.2444C16.9449 52.7723 17.6408 50.8379 18.3396 48.9028C19.0204 50.8377 19.6988 52.7732 20.3844 54.7069ZM28.2733 50.2144C28.2733 50.4519 28.1344 50.5655 27.8441 50.5655H25.4838V48.6756H27.8441C28.1344 48.6756 28.2733 48.7892 28.2733 49.0267V50.2144Z" fill="white"/>
<defs>
<linearGradient id="paint0_linear" x1="42.4195" y1="37.2842" x2="54.5282" y2="22.8668" gradientUnits="userSpaceOnUse">
<stop stop-color="#06DBEC"/>
<stop offset="1" stop-color="#B808FF"/>
</linearGradient>
<linearGradient id="paint1_linear" x1="42.0506" y1="55.9308" x2="67.6519" y2="22.0956" gradientUnits="userSpaceOnUse">
<stop stop-color="#06DBEC"/>
<stop offset="1" stop-color="#B808FF"/>
</linearGradient>
</defs>
</svg>

<svg width="63" height="55" fill="none" xmlns="http://www.w3.org/2000/svg"><mask id="a" style="mask-type:alpha" maskUnits="userSpaceOnUse" x="38" y="4" width="8" height="11"><path d="m38.587 13.845 6.89-9.507-4.45 9.841-2.44-.334Z" fill="#fff"/></mask><g mask="url(#a)"><path fill-rule="evenodd" clip-rule="evenodd" d="m38.587 13.845 6.89-9.507-4.45 9.841-2.44-.334Z" fill="url(#b)"/></g><mask id="c" style="mask-type:alpha" maskUnits="userSpaceOnUse" x="10" y="0" width="44" height="42"><path d="M45.318 41.23 42.64 26.35l10.89-10.46-12.503-1.711c-6.534 14.368-8.59 20.119 4.29 27.05ZM32.03.23l-6.558 13.615L10.53 15.89l10.89 10.46-2.678 14.88 19.845-27.385 2.44.334-2.44-.334L32.03.229Z" fill="#fff"/></mask><g mask="url(#c)"><path fill-rule="evenodd" clip-rule="evenodd" d="m43.7 41.23-2.553-14.88L51.53 15.89l-11.921-1.71c-6.23 14.368-8.19 20.119 4.09 27.05ZM31.03.23l-6.253 13.615L10.53 15.89l10.383 10.46-2.553 14.88 18.922-27.385 2.327.334-2.327-.334L31.03.229Z" fill="url(#d)"/></g><mask id="e" style="mask-type:alpha" maskUnits="userSpaceOnUse" x="16" y="53" width="5" height="2"><path d="m16.295 54.707 2.045-1.288 2.044 1.288a10.372 10.372 0 0 0-4.09 0Z" fill="#fff"/></mask><g mask="url(#e)"><path fill-rule="evenodd" clip-rule="evenodd" d="m16.295 54.707 2.045-1.288 2.044 1.288a10.372 10.372 0 0 0-4.09 0Z" fill="#fff"/></g><path fill-rule="evenodd" clip-rule="evenodd" d="M31.997 54.707h4.695c1.06 0 1.793-.6 1.793-1.467v-1.218c0-.507-.303-.878-.897-1.116.53-.258.796-.63.796-1.115v-1.054c0-.867-.733-1.466-1.793-1.466h-4.594v7.436Zm1.817-6.052h2.323c.29 0 .429.113.429.35v.889c0 .29-.088.351-.43.351h-2.322v-1.59Zm0 2.912h2.272c.417 0 .581.041.581.33v1.075c0 .237-.139.35-.43.35h-2.423v-1.755Zm11.032 1.467.593 1.673h1.957l-2.928-7.436h-2.121l-2.928 7.436h1.88l.606-1.673h2.941Zm-.492-1.405H42.41l.985-2.726.959 2.726Zm10.224-2.066v-.867c0-.867-.732-1.466-1.793-1.466H50.11c-1.06 0-1.793.599-1.793 1.466v1.26c0 .785.758 1.29 1.818 1.487l2.348.413c.303.052.429.134.429.351v.785c0 .238-.14.351-.43.351h-1.968c-.29 0-.43-.113-.43-.35v-.662h-1.767v.95c0 .868.732 1.467 1.793 1.467h2.827c1.06 0 1.792-.599 1.792-1.466v-1.343c0-.785-.757-1.291-1.817-1.487l-2.348-.413c-.303-.052-.43-.135-.43-.352v-.702c0-.237.14-.351.43-.351h1.818c.29 0 .429.114.429.351v.578h1.767Zm2.007 5.144h5.945v-1.405h-4.128v-1.694h3.345v-1.404h-5.162v4.503Zm1.817-6.032h4.128v-1.404h-5.945v1.404h1.817Zm-29.548 3.213c.757-.176 1.237-.703 1.237-1.405v-1.745c0-.868-.732-1.467-1.793-1.467h-4.632v7.436h1.818v-2.758h1.464l1.464 2.758h1.957l-1.515-2.82ZM6.79 49.564v-.868c0-.867-.732-1.466-1.792-1.466H2.322c-1.06 0-1.792.599-1.792 1.466v1.26c0 .785.757 1.291 1.817 1.487l2.348.413c.303.052.43.135.43.352v.785c0 .237-.14.35-.43.35H2.726c-.29 0-.43-.113-.43-.35v-.661H.53v.95c0 .867.732 1.466 1.792 1.466H5.15c1.06 0 1.793-.599 1.793-1.466v-1.343c0-.785-.758-1.29-1.818-1.487l-2.348-.413c-.302-.052-.429-.134-.429-.351v-.703c0-.237.14-.35.43-.35h1.817c.29 0 .43.113.43.35v.579H6.79Zm7.763-2.293H7.989v1.384h2.373v6.052h1.818v-6.052h2.373v-1.384Zm5.831 7.436h1.957l-2.928-7.436h-2.121l-2.928 7.436h1.88c.7-1.935 1.397-3.87 2.096-5.804.68 1.935 1.359 3.87 2.044 5.804Zm7.89-4.493c0 .238-.14.352-.43.352h-2.36v-1.89h2.36c.29 0 .43.113.43.35v1.188Z" fill="#fff"/><defs><linearGradient id="b" x1="42.419" y1="37.284" x2="54.528" y2="22.867" gradientUnits="userSpaceOnUse"><stop stop-color="#06DBEC"/><stop offset="1" stop-color="#B808FF"/></linearGradient><linearGradient id="d" x1="42.051" y1="55.931" x2="67.652" y2="22.096" gradientUnits="userSpaceOnUse"><stop stop-color="#06DBEC"/><stop offset="1" stop-color="#B808FF"/></linearGradient></defs></svg>
